assets/logos/SVG/IOTA-alt.svg

<svg enable-background="new 0 0 226.8 226.8" viewBox="0 0 226.8 226.8" xmlns="http://www.w3.org/2000/svg"><path d="m113.4 0c-62.6 0-113.4 50.8-113.4 113.4s50.8 113.4 113.4 113.4 113.4-50.8 113.4-113.4-50.8-113.4-113.4-113.4zm45.392 73.794c1.047-4.396 5.46-7.11 9.856-6.063s7.11 5.46 6.063 9.856-5.46 7.11-9.856 6.063c-4.397-1.047-7.111-5.46-6.063-9.856zm-1.182 19.698c.847-3.555 4.416-5.75 7.97-4.903 3.555.847 5.75 4.416 4.903 7.97-.847 3.555-4.415 5.75-7.97 4.903s-5.75-4.415-4.903-7.97zm-8.061 33.826c-2.289-.545-3.702-2.843-3.157-5.132s2.843-3.702 5.132-3.157 3.702 2.843 3.156 5.132c-.545 2.289-2.842 3.702-5.131 3.157zm2.656 16.69c-.748 1.566-2.624 2.23-4.191 1.482-1.566-.748-2.23-2.624-1.482-4.191s2.624-2.23 4.191-1.482 2.23 2.624 1.482 4.191zm-7.632-44.797c-3.938 0-7.131-3.193-7.131-7.131s3.193-7.131 7.131-7.131c3.939 0 7.131 3.193 7.131 7.131s-3.193 7.131-7.131 7.131zm10.253 36.541c.857-1.794 3.005-2.553 4.798-1.697 1.794.857 2.553 3.005 1.697 4.798-.857 1.794-3.005 2.553-4.798 1.697s-2.553-3.004-1.697-4.798zm1.631-19.045c-3.283-.782-5.311-4.078-4.528-7.362.782-3.283 4.078-5.31 7.361-4.528s5.31 4.078 4.528 7.361c-.782 3.284-4.078 5.311-7.361 4.529zm-9.134-36.439c-4.264 0-7.721-3.457-7.721-7.721s3.457-7.721 7.721-7.721 7.721 3.457 7.721 7.721-3.457 7.721-7.721 7.721zm-2.16-39.948c5.273 0 9.548 4.275 9.548 9.548s-4.275 9.548-9.548 9.548-9.548-4.275-9.548-9.548 4.275-9.548 9.548-9.548zm-5.561 62.862c2.745 0 4.971 2.226 4.971 4.971 0 2.746-2.226 4.971-4.971 4.971-2.746 0-4.971-2.226-4.971-4.971 0-2.746 2.225-4.971 4.971-4.971zm-7.667 21.163c-2.398 0-4.342-1.944-4.342-4.342s1.944-4.342 4.342-4.342 4.342 1.944 4.342 4.342-1.944 4.342-4.342 4.342zm4.057 13.177c-.442 1.855-2.304 3-4.159 2.558s-3-2.304-2.558-4.159 2.304-3 4.159-2.558 3 2.304 2.558 4.159zm-13.047-13.177c2.225 0 4.029 1.804 4.029 4.029s-1.804 4.029-4.029 4.029-4.029-1.804-4.029-4.029 1.804-4.029 4.029-4.029zm-4.753-39.361c-1.969.587-4.042-.534-4.629-2.503s.534-4.042 2.503-4.629 4.042.534 4.629 2.503c.587 1.97-.534 4.042-2.503 4.629zm7.642 17.823c-1.927 1.112-4.391.452-5.503-1.475s-.452-4.391 1.475-5.503c1.927-1.113 4.391-.452 5.503 1.475s.452 4.391-1.475 5.503zm-.616-19.363c1.827-.545 3.75.495 4.295 2.323.545 1.827-.495 3.75-2.323 4.295-1.827.545-3.75-.495-4.295-2.323-.544-1.827.496-3.75 2.323-4.295zm4.077-11.041c1.606-.126 3.01 1.074 3.135 2.68.126 1.606-1.074 3.01-2.68 3.135-1.606.126-3.01-1.074-3.135-2.68s1.075-3.01 2.68-3.135zm-6.567-6.242c1.731-.135 3.243 1.158 3.379 2.888.135 1.731-1.158 3.244-2.888 3.379-1.731.135-3.243-1.158-3.379-2.888-.135-1.731 1.158-3.244 2.888-3.379zm-9.022-5.318c1.982-.155 3.714 1.325 3.869 3.307s-1.325 3.714-3.307 3.869-3.714-1.325-3.869-3.307 1.326-3.714 3.307-3.869zm2.129 32.704c1.199 2.077.487 4.732-1.589 5.931-2.077 1.199-4.732.487-5.931-1.589-1.199-2.077-.487-4.732 1.589-5.931 2.077-1.2 4.732-.488 5.931 1.589zm-32.331 32.659c1.412-1.493 3.767-1.559 5.26-.146 1.493 1.412 1.559 3.767.147 5.26s-3.767 1.559-5.26.147c-1.494-1.413-1.559-3.768-.147-5.261zm.277-10.343c1.31-1.385 3.495-1.446 4.881-.136 1.385 1.31 1.446 3.495.136 4.881-1.31 1.385-3.495 1.446-4.881.136-1.385-1.31-1.446-3.495-.136-4.881zm2.195 21.724c1.617-1.709 4.313-1.784 6.022-.168 1.709 1.617 1.784 4.313.168 6.022-1.617 1.709-4.313 1.784-6.022.168-1.71-1.616-1.785-4.313-.168-6.022zm14.488-38.279c-2.378 1.373-5.418.558-6.791-1.82s-.558-5.418 1.82-6.791 5.418-.558 6.791 1.82.558 5.418-1.82 6.791zm1.388 16.725c-1.112 1.927-3.576 2.587-5.503 1.475-1.927-1.113-2.587-3.577-1.475-5.503 1.112-1.927 3.576-2.587 5.503-1.475 1.928 1.112 2.588 3.576 1.475 5.503zm-10.141 32.842c2.319-2.452 6.187-2.56 8.639-.241s2.56 6.187.241 8.639-6.187 2.56-8.639.241-2.56-6.187-.241-8.639zm7.235-19.125c-2.077-1.199-2.788-3.854-1.589-5.931s3.854-2.788 5.931-1.589 2.788 3.854 1.589 5.931c-1.199 2.076-3.854 2.788-5.931 1.589zm4.296 6.319c1.373-2.378 4.413-3.192 6.791-1.82 2.378 1.373 3.192 4.413 1.82 6.791-1.373 2.378-4.413 3.192-6.791 1.82-2.378-1.373-3.193-4.413-1.82-6.791zm6.361-59.263c.672 2.255-.611 4.627-2.866 5.299s-4.627-.611-5.299-2.866.611-4.627 2.866-5.299c2.254-.672 4.627.611 5.299 2.866zm-7.9-20.202c2.843-.223 5.327 1.901 5.55 4.744s-1.901 5.327-4.744 5.55-5.327-1.901-5.55-4.744 1.901-5.327 4.744-5.55zm-4.744 19.525c.964 3.234-.877 6.638-4.111 7.602-3.235.964-6.638-.877-7.602-4.111s.877-6.638 4.111-7.602c3.235-.964 6.638.876 7.602 4.111zm-9.542-20.832c3.078-.241 5.768 2.059 6.009 5.136.241 3.078-2.059 5.768-5.136 6.009-3.078.241-5.768-2.059-6.009-5.136s2.058-5.768 5.136-6.009zm.332 39.872c1.969 3.411.801 7.772-2.61 9.741s-7.772.801-9.741-2.61-.801-7.772 2.61-9.741 7.772-.801 9.741 2.61zm-15.433 27.565c-.912-1.328-.575-3.144.753-4.055 1.328-.912 3.143-.575 4.055.753s.575 3.143-.753 4.055-3.143.575-4.055-.753zm2.248 9.62c-1.431.983-3.388.619-4.37-.812-.983-1.431-.619-3.388.812-4.37 1.431-.983 3.388-.619 4.37.812.983 1.431.619 3.387-.812 4.37zm6.165-53.847c1.044 3.502-.949 7.187-4.451 8.231s-7.187-.949-8.231-4.451.949-7.187 4.451-8.231c3.503-1.044 7.188.949 8.231 4.451zm-9.661-21.688c3.806-.298 7.133 2.546 7.431 6.352s-2.546 7.133-6.352 7.431-7.133-2.546-7.431-6.352 2.546-7.133 6.352-7.431zm-17.114 23.062c4.331-1.291 8.888 1.174 10.179 5.504 1.291 4.331-1.174 8.888-5.504 10.179-4.331 1.291-8.888-1.174-10.179-5.504-1.291-4.331 1.174-8.889 5.504-10.179zm-4.457 47.717c-4.567 2.637-10.406 1.072-13.043-3.495s-1.072-10.406 3.495-13.043 10.406-1.072 13.043 3.495c2.636 4.567 1.071 10.406-3.495 13.043zm17.646-14.792c-3.693 2.132-8.415.867-10.547-2.826s-.867-8.415 2.826-10.547 8.415-.867 10.547 2.826c2.133 3.693.867 8.415-2.826 10.547zm2.956 29.208c-1.125-1.638-.709-3.879.93-5.004 1.638-1.125 3.879-.709 5.004.929 1.125 1.639.709 3.879-.929 5.004-1.64 1.126-3.88.71-5.005-.929zm2.331 12.515c-1.614-2.35-1.017-5.564 1.333-7.178s5.564-1.017 7.178 1.333 1.017 5.564-1.333 7.178c-2.35 1.615-5.564 1.017-7.178-1.333zm6.011 13.025c-1.747-2.545-1.101-6.024 1.444-7.772 2.545-1.747 6.024-1.101 7.772 1.444 1.747 2.545 1.101 6.025-1.444 7.772-2.544 1.748-6.024 1.101-7.772-1.444zm19.104 15.184c-3.147 2.161-7.45 1.362-9.611-1.785s-1.362-7.45 1.785-9.611 7.45-1.362 9.611 1.785 1.362 7.45-1.785 9.611zm13.955-11.904c-2.511 2.655-6.699 2.772-9.354.261s-2.772-6.699-.261-9.354 6.699-2.772 9.354-.261c2.655 2.512 2.772 6.699.261 9.354zm1.305-23.503c1.969-3.411 6.331-4.58 9.741-2.61 3.411 1.969 4.579 6.331 2.61 9.741-1.969 3.411-6.331 4.579-9.741 2.61s-4.579-6.33-2.61-9.741zm15.224 36.589c-3.105 3.283-8.284 3.427-11.567.322s-3.428-8.284-.322-11.567c3.105-3.283 8.284-3.427 11.567-.322s3.428 8.283.322 11.567zm13.179-17.015c-2.132 3.693-6.854 4.958-10.547 2.826s-4.958-6.854-2.826-10.547 6.854-4.958 10.547-2.826 4.958 6.854 2.826 10.547zm2.308-20.331c-.694 1.454-2.435 2.069-3.889 1.375s-2.069-2.435-1.375-3.889 2.435-2.069 3.889-1.375 2.069 2.435 1.375 3.889zm1.895-14.182c-.476 1.999-2.483 3.233-4.482 2.757s-3.233-2.483-2.757-4.482 2.483-3.233 4.482-2.757c1.999.477 3.233 2.483 2.757 4.482zm18.1 44.895c-2.637 4.567-8.476 6.131-13.043 3.495-4.567-2.637-6.131-8.476-3.495-13.043 2.637-4.567 8.476-6.131 13.043-3.495 4.567 2.637 6.131 8.476 3.495 13.043zm7.483-46.71c-1.229 2.573-4.31 3.663-6.883 2.434s-3.663-4.31-2.434-6.883 4.31-3.663 6.883-2.434 3.663 4.31 2.434 6.883zm8.275-11.718c-1.33 2.786-4.667 3.966-7.453 2.636s-3.966-4.667-2.636-7.453 4.667-3.966 7.453-2.636 3.966 4.667 2.636 7.453zm6.857-14.92c-1.645 3.445-5.771 4.904-9.216 3.259s-4.904-5.771-3.259-9.216 5.771-4.904 9.216-3.259c3.444 1.645 4.904 5.771 3.259 9.216z"/></svg>

<?xml version="1.0" encoding="utf-8"?>
<!-- Generator: Adobe Illustrator 20.1.0, SVG Export Plug-In . SVG Version: 6.00 Build 0)  -->
<svg version="1.1" id="Vrstva_1" xmlns="http://www.w3.org/2000/svg" xmlns:xlink="http://www.w3.org/1999/xlink" x="0px" y="0px"
	 viewBox="0 0 226.8 226.8" style="enable-background:new 0 0 226.8 226.8;" xml:space="preserve">
<path d="M113.4,0C50.8,0,0,50.8,0,113.4s50.8,113.4,113.4,113.4S226.8,176,226.8,113.4S176,0,113.4,0z M158.792,73.794
	c1.047-4.396,5.46-7.11,9.856-6.063c4.396,1.047,7.11,5.46,6.063,9.856c-1.047,4.396-5.46,7.11-9.856,6.063
	C160.458,82.603,157.744,78.19,158.792,73.794z M157.61,93.492c0.847-3.555,4.416-5.75,7.97-4.903
	c3.555,0.847,5.75,4.416,4.903,7.97c-0.847,3.555-4.415,5.75-7.97,4.903C158.958,100.615,156.763,97.047,157.61,93.492z
	 M149.549,127.318c-2.289-0.545-3.702-2.843-3.157-5.132c0.545-2.289,2.843-3.702,5.132-3.157c2.289,0.545,3.702,2.843,3.156,5.132
	C154.135,126.45,151.838,127.863,149.549,127.318z M152.205,144.008c-0.748,1.566-2.624,2.23-4.191,1.482
	c-1.566-0.748-2.23-2.624-1.482-4.191c0.748-1.567,2.624-2.23,4.191-1.482C152.29,140.565,152.953,142.441,152.205,144.008z
	 M144.573,99.211c-3.938,0-7.131-3.193-7.131-7.131c0-3.938,3.193-7.131,7.131-7.131c3.939,0,7.131,3.193,7.131,7.131
	C151.704,96.018,148.511,99.211,144.573,99.211z M154.826,135.752c0.857-1.794,3.005-2.553,4.798-1.697
	c1.794,0.857,2.553,3.005,1.697,4.798c-0.857,1.794-3.005,2.553-4.798,1.697C154.73,139.694,153.97,137.546,154.826,135.752z
	 M156.457,116.707c-3.283-0.782-5.311-4.078-4.528-7.362c0.782-3.283,4.078-5.31,7.361-4.528c3.283,0.782,5.31,4.078,4.528,7.361
	C163.036,115.462,159.74,117.489,156.457,116.707z M147.323,80.268c-4.264,0-7.721-3.457-7.721-7.721
	c0-4.264,3.457-7.721,7.721-7.721s7.721,3.457,7.721,7.721C155.044,76.811,151.587,80.268,147.323,80.268z M145.163,40.32
	c5.273,0,9.548,4.275,9.548,9.548c0,5.273-4.275,9.548-9.548,9.548c-5.273,0-9.548-4.275-9.548-9.548
	C135.615,44.595,139.89,40.32,145.163,40.32z M139.602,103.182c2.745,0,4.971,2.226,4.971,4.971c0,2.746-2.226,4.971-4.971,4.971
	c-2.746,0-4.971-2.226-4.971-4.971C134.631,105.407,136.856,103.182,139.602,103.182z M131.935,124.345
	c-2.398,0-4.342-1.944-4.342-4.342c0-2.398,1.944-4.342,4.342-4.342s4.342,1.944,4.342,4.342
	C136.277,122.401,134.333,124.345,131.935,124.345z M135.992,137.522c-0.442,1.855-2.304,3-4.159,2.558
	c-1.855-0.442-3-2.304-2.558-4.159c0.442-1.855,2.304-3,4.159-2.558C135.289,133.805,136.434,135.667,135.992,137.522z
	 M122.945,124.345c2.225,0,4.029,1.804,4.029,4.029c0,2.225-1.804,4.029-4.029,4.029c-2.225,0-4.029-1.804-4.029-4.029
	C118.916,126.149,120.72,124.345,122.945,124.345z M118.192,84.984c-1.969,0.587-4.042-0.534-4.629-2.503
	c-0.587-1.969,0.534-4.042,2.503-4.629c1.969-0.587,4.042,0.534,4.629,2.503C121.282,82.325,120.161,84.397,118.192,84.984z
	 M125.834,102.807c-1.927,1.112-4.391,0.452-5.503-1.475c-1.112-1.927-0.452-4.391,1.475-5.503c1.927-1.113,4.391-0.452,5.503,1.475
	C128.421,99.231,127.761,101.695,125.834,102.807z M125.218,83.444c1.827-0.545,3.75,0.495,4.295,2.323
	c0.545,1.827-0.495,3.75-2.323,4.295c-1.827,0.545-3.75-0.495-4.295-2.323C122.351,85.912,123.391,83.989,125.218,83.444z
	 M129.295,72.403c1.606-0.126,3.01,1.074,3.135,2.68c0.126,1.606-1.074,3.01-2.68,3.135c-1.606,0.126-3.01-1.074-3.135-2.68
	C126.49,73.932,127.69,72.528,129.295,72.403z M122.728,66.161c1.731-0.135,3.243,1.158,3.379,2.888
	c0.135,1.731-1.158,3.244-2.888,3.379c-1.731,0.135-3.243-1.158-3.379-2.888C119.705,67.809,120.998,66.296,122.728,66.161z
	 M113.706,60.843c1.982-0.155,3.714,1.325,3.869,3.307c0.155,1.982-1.325,3.714-3.307,3.869s-3.714-1.325-3.869-3.307
	C110.244,62.73,111.725,60.998,113.706,60.843z M115.835,93.547c1.199,2.077,0.487,4.732-1.589,5.931
	c-2.077,1.199-4.732,0.487-5.931-1.589c-1.199-2.077-0.487-4.732,1.589-5.931C111.981,90.758,114.636,91.47,115.835,93.547z
	 M83.504,126.206c1.412-1.493,3.767-1.559,5.26-0.146c1.493,1.412,1.559,3.767,0.147,5.26c-1.412,1.493-3.767,1.559-5.26,0.147
	C82.157,130.054,82.092,127.699,83.504,126.206z M83.781,115.863c1.31-1.385,3.495-1.446,4.881-0.136
	c1.385,1.31,1.446,3.495,0.136,4.881c-1.31,1.385-3.495,1.446-4.881,0.136C82.532,119.434,82.471,117.249,83.781,115.863z
	 M85.976,137.587c1.617-1.709,4.313-1.784,6.022-0.168c1.709,1.617,1.784,4.313,0.168,6.022c-1.617,1.709-4.313,1.784-6.022,0.168
	C84.434,141.993,84.359,139.296,85.976,137.587z M100.464,99.308c-2.378,1.373-5.418,0.558-6.791-1.82
	c-1.373-2.378-0.558-5.418,1.82-6.791c2.378-1.373,5.418-0.558,6.791,1.82C103.657,94.895,102.842,97.935,100.464,99.308z
	 M101.852,116.033c-1.112,1.927-3.576,2.587-5.503,1.475c-1.927-1.113-2.587-3.577-1.475-5.503c1.112-1.927,3.576-2.587,5.503-1.475
	C102.305,111.642,102.965,114.106,101.852,116.033z M91.711,148.875c2.319-2.452,6.187-2.56,8.639-0.241
	c2.452,2.319,2.56,6.187,0.241,8.639c-2.319,2.452-6.187,2.56-8.639,0.241S89.392,151.327,91.711,148.875z M98.946,129.75
	c-2.077-1.199-2.788-3.854-1.589-5.931c1.199-2.077,3.854-2.788,5.931-1.589c2.077,1.199,2.788,3.854,1.589,5.931
	C103.678,130.237,101.023,130.949,98.946,129.75z M103.242,136.069c1.373-2.378,4.413-3.192,6.791-1.82
	c2.378,1.373,3.192,4.413,1.82,6.791c-1.373,2.378-4.413,3.192-6.791,1.82C102.684,141.487,101.869,138.447,103.242,136.069z
	 M109.603,76.806c0.672,2.255-0.611,4.627-2.866,5.299c-2.255,0.672-4.627-0.611-5.299-2.866c-0.672-2.255,0.611-4.627,2.866-5.299
	C106.558,73.268,108.931,74.551,109.603,76.806z M101.703,56.604c2.843-0.223,5.327,1.901,5.55,4.744
	c0.223,2.843-1.901,5.327-4.744,5.55c-2.843,0.223-5.327-1.901-5.55-4.744C96.736,59.311,98.86,56.827,101.703,56.604z
	 M96.959,76.129c0.964,3.234-0.877,6.638-4.111,7.602c-3.235,0.964-6.638-0.877-7.602-4.111c-0.964-3.234,0.877-6.638,4.111-7.602
	C92.592,71.054,95.995,72.894,96.959,76.129z M87.417,55.297c3.078-0.241,5.768,2.059,6.009,5.136
	c0.241,3.078-2.059,5.768-5.136,6.009c-3.078,0.241-5.768-2.059-6.009-5.136C82.04,58.229,84.339,55.538,87.417,55.297z
	 M87.749,95.169c1.969,3.411,0.801,7.772-2.61,9.741c-3.411,1.969-7.772,0.801-9.741-2.61c-1.969-3.411-0.801-7.772,2.61-9.741
	C81.419,90.59,85.78,91.758,87.749,95.169z M72.316,122.734c-0.912-1.328-0.575-3.144,0.753-4.055
	c1.328-0.912,3.143-0.575,4.055,0.753c0.912,1.328,0.575,3.143-0.753,4.055C75.043,124.399,73.228,124.062,72.316,122.734z
	 M74.564,132.354c-1.431,0.983-3.388,0.619-4.37-0.812c-0.983-1.431-0.619-3.388,0.812-4.37c1.431-0.983,3.388-0.619,4.37,0.812
	C76.359,129.415,75.995,131.371,74.564,132.354z M80.729,78.507c1.044,3.502-0.949,7.187-4.451,8.231
	c-3.502,1.044-7.187-0.949-8.231-4.451c-1.044-3.502,0.949-7.187,4.451-8.231C76.001,73.012,79.686,75.005,80.729,78.507z
	 M71.068,56.819c3.806-0.298,7.133,2.546,7.431,6.352c0.298,3.806-2.546,7.133-6.352,7.431c-3.806,0.298-7.133-2.546-7.431-6.352
	C64.418,60.444,67.262,57.117,71.068,56.819z M53.954,79.881c4.331-1.291,8.888,1.174,10.179,5.504
	c1.291,4.331-1.174,8.888-5.504,10.179c-4.331,1.291-8.888-1.174-10.179-5.504C47.159,85.729,49.624,81.171,53.954,79.881z
	 M49.497,127.598c-4.567,2.637-10.406,1.072-13.043-3.495c-2.637-4.567-1.072-10.406,3.495-13.043
	c4.567-2.637,10.406-1.072,13.043,3.495C55.628,119.122,54.063,124.961,49.497,127.598z M67.143,112.806
	c-3.693,2.132-8.415,0.867-10.547-2.826c-2.132-3.693-0.867-8.415,2.826-10.547c3.693-2.132,8.415-0.867,10.547,2.826
	C72.102,105.952,70.836,110.674,67.143,112.806z M70.099,142.014c-1.125-1.638-0.709-3.879,0.93-5.004
	c1.638-1.125,3.879-0.709,5.004,0.929c1.125,1.639,0.709,3.879-0.929,5.004C73.464,144.069,71.224,143.653,70.099,142.014z
	 M72.43,154.529c-1.614-2.35-1.017-5.564,1.333-7.178c2.35-1.614,5.564-1.017,7.178,1.333c1.614,2.35,1.017,5.564-1.333,7.178
	C77.258,157.477,74.044,156.879,72.43,154.529z M78.441,167.554c-1.747-2.545-1.101-6.024,1.444-7.772
	c2.545-1.747,6.024-1.101,7.772,1.444c1.747,2.545,1.101,6.025-1.444,7.772C83.669,170.746,80.189,170.099,78.441,167.554z
	 M97.545,182.738c-3.147,2.161-7.45,1.362-9.611-1.785c-2.161-3.147-1.362-7.45,1.785-9.611c3.147-2.161,7.45-1.362,9.611,1.785
	C101.491,176.274,100.692,180.577,97.545,182.738z M111.5,170.834c-2.511,2.655-6.699,2.772-9.354,0.261
	c-2.655-2.511-2.772-6.699-0.261-9.354c2.511-2.655,6.699-2.772,9.354-0.261C113.894,163.992,114.011,168.179,111.5,170.834z
	 M112.805,147.331c1.969-3.411,6.331-4.58,9.741-2.61c3.411,1.969,4.579,6.331,2.61,9.741c-1.969,3.411-6.331,4.579-9.741,2.61
	C112.005,155.103,110.836,150.742,112.805,147.331z M128.029,183.92c-3.105,3.283-8.284,3.427-11.567,0.322
	c-3.283-3.105-3.428-8.284-0.322-11.567c3.105-3.283,8.284-3.427,11.567-0.322C130.99,175.458,131.135,180.636,128.029,183.92z
	 M141.208,166.905c-2.132,3.693-6.854,4.958-10.547,2.826c-3.693-2.132-4.958-6.854-2.826-10.547
	c2.132-3.693,6.854-4.958,10.547-2.826S143.34,163.212,141.208,166.905z M143.516,146.574c-0.694,1.454-2.435,2.069-3.889,1.375
	c-1.454-0.694-2.069-2.435-1.375-3.889s2.435-2.069,3.889-1.375C143.595,143.379,144.21,145.12,143.516,146.574z M145.411,132.392
	c-0.476,1.999-2.483,3.233-4.482,2.757c-1.999-0.476-3.233-2.483-2.757-4.482c0.476-1.999,2.483-3.233,4.482-2.757
	C144.653,128.387,145.887,130.393,145.411,132.392z M163.511,177.287c-2.637,4.567-8.476,6.131-13.043,3.495
	c-4.567-2.637-6.131-8.476-3.495-13.043c2.637-4.567,8.476-6.131,13.043-3.495C164.583,166.881,166.147,172.72,163.511,177.287z
	 M170.994,130.577c-1.229,2.573-4.31,3.663-6.883,2.434c-2.573-1.229-3.663-4.31-2.434-6.883s4.31-3.663,6.883-2.434
	C171.133,124.923,172.223,128.004,170.994,130.577z M179.269,118.859c-1.33,2.786-4.667,3.966-7.453,2.636
	c-2.786-1.33-3.966-4.667-2.636-7.453c1.33-2.786,4.667-3.966,7.453-2.636C179.419,112.736,180.599,116.073,179.269,118.859z
	 M186.126,103.939c-1.645,3.445-5.771,4.904-9.216,3.259c-3.445-1.645-4.904-5.771-3.259-9.216c1.645-3.445,5.771-4.904,9.216-3.259
	C186.311,96.368,187.771,100.494,186.126,103.939z"/>
</svg>
